X: 1
T:Drops of Brandy
% Nottingham Music Database
S:Trad
M:9/8
K:G
P:A
B/2c/2|:"G"d2c BGB BGB|"G"d2c BGB "D7"cBA|"G"d2c BGB BGB|"C"cBc A2B "D7"cBA:|
"G"\
P:B
GBd gdB gdB|"G"GBd gdB "D7"cBA|"G"GBd gdB gdB|"C"cBc A2B "D7"cBA:|<end>
<start>
